frontend/public/svg/hand gestures/3-tap.svg

<svg width="113" height="157" viewBox="0 0 113 157" fill="none" xmlns="http://www.w3.org/2000/svg">
<g clip-path="url(#clip0)">
<path d="M24.9977 39.5427C25.3828 39.5377 25.765 39.4755 26.1319 39.3583L26.2559 39.3208L26.3216 39.2099C27.2405 37.68 26.884 36.1704 26.5375 34.7107C26.4627 34.3977 26.3878 34.0846 26.3267 33.7728C25.6226 30.4698 26.1552 27.0232 27.8235 24.0868C29.4919 21.1504 32.1798 18.9284 35.3776 17.8422C39.08 16.5249 42.4451 16.4573 45.667 17.6335C47.1202 18.1638 48.1212 18.2321 48.9127 17.8553C49.7344 17.4648 50.3252 16.6083 50.887 14.9838C51.1954 13.9561 51.6602 12.9821 52.2652 12.096C53.7612 10.04 55.7167 8.36179 57.9758 7.19501C60.235 6.02832 62.7354 5.40535 65.2779 5.37573C71.2073 5.18277 74.8913 7.54163 77.2187 13.0201C78.3627 15.715 79.5999 16.3779 82.3086 15.7511C84.2468 15.3028 85.8443 15.0291 87.2968 15.8824L88.0063 16.2978C90.3875 17.5885 92.6381 19.1066 94.7265 20.8312C95.9243 21.8707 96.817 23.2169 97.3079 24.7251C97.7988 26.2334 97.8697 27.8469 97.5133 29.3924L97.4628 29.6596C97.2383 30.4877 97.1983 31.355 97.346 32.2002C97.5737 33.2111 98.1749 34.0988 99.0288 34.6858C99.2933 34.8266 99.5847 34.9109 99.8834 34.9336C100.183 34.9561 100.483 34.9165 100.766 34.8171C101.106 34.6916 101.417 34.4992 101.681 34.2512C101.945 34.0031 102.157 33.7045 102.303 33.3731C102.904 32.1364 103.296 30.8089 103.464 29.4443C104.013 23.8615 102.02 19.1673 97.5508 15.4925C92.306 11.1823 87.4149 9.37215 82.1642 9.80796C79.9222 5.08234 76.0708 2.18002 70.3994 0.947414C70.2359 0.887976 70.0856 0.797736 69.957 0.6816C69.8631 0.609403 69.7686 0.53853 69.6721 0.476835L69.5894 0.424316H61.4016L61.2702 0.451237C60.5777 0.743963 59.8801 1.02683 59.1831 1.30971C57.6512 1.93192 56.0667 2.57514 54.5565 3.31877C51.2518 4.94649 48.5234 7.61317 45.9821 11.7048C45.3087 11.7048 44.6596 11.7002 44.0262 11.6969C42.5731 11.689 41.1988 11.6825 39.8257 11.7113C33.492 11.8479 28.4757 14.256 24.9157 18.8694C20.7689 24.2421 19.7963 30.224 22.0279 36.6482C22.377 37.636 23.0386 39.5433 24.9977 39.5427Z" fill="black"/>
<path d="M93.6049 72.9572C93.2412 73.1292 92.8691 73.2808 92.4891 73.4114L92.2062 73.5158L92.2751 72.0718C92.3408 70.7519 92.3985 69.5397 92.4471 68.3261C92.4996 67.0213 92.556 65.7157 92.6158 64.41C93.0004 55.7542 93.3981 46.8024 92.1891 38.0049C91.542 33.293 90.7373 28.7387 88.0424 24.8164C87.3178 23.7213 86.37 22.7918 85.2608 22.0889C84.1516 21.386 82.9065 20.9257 81.6063 20.7382C80.3068 20.5507 78.9823 20.6402 77.7202 21.0009C76.4574 21.3616 75.2852 21.9853 74.281 22.831C73.8215 23.2084 73.3752 23.6094 72.9683 23.9789L72.7714 24.1568C72.3992 23.4782 72.0383 22.8061 71.6812 22.1405C70.7262 20.3612 69.8244 18.6803 68.7973 17.0382C67.1 14.3236 64.3628 13.1527 60.8856 13.6475C59.3731 13.8325 57.9259 14.373 56.6626 15.2248C55.3993 16.0767 54.3557 17.2156 53.6173 18.5484C52.5672 20.5279 51.6284 22.5644 50.8049 24.6484C50.5155 25.3435 50.2267 26.0366 49.93 26.7238C49.8421 26.582 49.752 26.435 49.6602 26.2853C49.1187 25.3721 48.5316 24.4867 47.9012 23.6324C45.2824 20.1991 41.8459 19.4377 37.9584 21.4337C35.0423 22.9301 33.2669 25.2365 32.8232 28.1034C32.4774 30.3428 32.312 32.6406 32.1531 34.8637C32.052 36.2689 31.9477 37.7213 31.7987 39.1417C30.8916 47.7883 31.1042 56.5766 31.309 65.0762C31.4048 69.0507 31.5059 73.1614 31.4869 77.2005C31.479 79.1734 31.6727 81.1766 31.8597 83.1128C31.9365 83.9004 32.0125 84.6958 32.0769 85.49H32.0421L31.9568 85.4953C31.7599 85.3384 31.5702 85.1756 31.3792 85.0122C31.0819 84.7595 30.7755 84.4976 30.4506 84.26C23.7671 79.3762 16.6365 77.6474 9.25534 79.1216C7.63576 79.4025 6.11485 80.0923 4.83707 81.126C3.55929 82.1598 2.56723 83.5033 1.95501 85.0286C1.35416 86.6557 1.17295 88.4081 1.42831 90.1238C1.68367 91.8394 2.36723 93.4632 3.41591 94.8441C4.48512 96.2106 5.69904 97.457 7.03634 98.5616L7.4701 98.9489C12.3561 103.199 16.4183 108.311 19.4536 114.031C23.7605 122.314 28.2906 130.378 33.7671 139.938C34.9234 141.917 36.4584 143.648 38.2845 145.032C47.7673 152.219 57.3577 155.769 67.3874 155.769C70.4059 155.763 73.4159 155.456 76.3734 154.85C90.1302 152.07 99.5034 145.04 105.029 133.359C107.327 128.579 108.964 123.508 109.896 118.285C111.411 109.664 112.777 100.367 112.521 90.7886C112.488 86.695 111.667 82.6454 110.105 78.861C109.482 77.3573 108.558 75.9981 107.387 74.8678C106.216 73.7376 104.826 72.8614 103.301 72.2924C101.726 71.7312 100.052 71.5002 98.3837 71.6144C96.7152 71.7292 95.0882 72.186 93.6049 72.9572ZM37.959 93.3864C37.8278 85.576 37.6552 77.3061 37.4524 68.8151C37.4104 67.043 37.3335 65.2482 37.2593 63.5089C37.1215 60.2869 36.9797 56.9547 37.0532 53.6881C37.2225 46.1743 37.6742 38.6159 38.1225 31.5176C38.3588 27.7765 38.937 26.8872 42.1917 25.4951C44.3025 26.8931 45.6094 29.1706 46.183 32.4523C47.0517 37.4055 47.6631 42.4003 48.0148 47.4168C48.4493 53.6756 48.7793 60.0486 49.0996 66.2121C49.286 69.8016 49.4719 73.3911 49.6786 76.976C49.7359 77.8089 49.9829 78.6168 50.4006 79.3388C50.7201 79.9 51.2279 80.3299 51.8339 80.5517C52.4401 80.7742 53.1054 80.7749 53.7118 80.553C54.2869 80.4401 54.8013 80.1225 55.1599 79.6584C55.5184 79.1951 55.6968 78.6175 55.6618 78.032C55.6559 77.1788 55.6768 76.3256 55.6978 75.4677C55.777 73.7304 55.7457 71.9898 55.6041 70.2564C54.6655 61.1992 55.1334 51.9875 55.5856 43.081L55.6868 41.0765C55.8837 37.0729 56.2255 33.0692 56.5307 29.6792C56.8352 26.3024 57.8586 23.6317 59.6583 21.5131C60.6185 20.3829 61.3856 19.8631 62.0295 19.93C62.6734 19.9969 63.3317 20.6638 64.0767 22.0303C66.5598 26.578 67.1905 31.6233 67.6638 36.8241C68.6378 47.5224 68.6443 58.9178 67.6848 73.7757C67.6283 74.6506 67.5253 75.5426 67.4262 76.405C67.2988 77.5155 67.1636 78.6641 67.1288 79.8035C67.0796 81.2849 67.457 82.3475 68.2446 82.9618C69.0322 83.5761 70.19 83.6752 71.6044 83.265C72.6073 83.0136 73.5032 82.4466 74.1602 81.6478C74.8165 80.8497 75.2005 79.8613 75.2543 78.8282L75.3698 77.5903C75.7092 74.5344 75.8929 71.4634 75.9198 68.3885C75.8463 59.9115 75.5982 51.2957 75.3587 42.9635L75.335 42.1405C75.3101 41.2872 75.2281 40.4196 75.148 39.5808C74.9196 37.1746 74.7036 34.903 75.7013 32.6649L75.9966 31.9941C76.5053 30.6897 77.1662 29.4499 77.9656 28.3003C78.2426 27.8756 78.6272 27.5319 79.0808 27.304C79.5336 27.0761 80.039 26.9722 80.5457 27.0027C81.0386 27.0959 81.4987 27.3183 81.8781 27.6471C82.2574 27.9759 82.5429 28.3995 82.7051 28.8746C83.5301 30.9333 84.1602 33.0648 84.5881 35.241C86.181 42.4234 85.9316 49.8511 85.6907 57.0315L85.6822 57.2848C85.4768 63.413 85.3757 69.646 85.2779 75.6738C85.2438 77.7308 85.209 79.7871 85.1735 81.8434C85.144 83.4731 85.2831 85.1415 87.2909 86.0617C90.0134 87.3087 91.2374 86.9681 92.7503 84.5449C93.0516 84.0625 93.3358 83.5689 93.62 83.0753C94 82.4151 94.3931 81.7318 94.8204 81.0939C96.3123 78.8715 97.7916 77.4302 100.166 77.6245C102.934 77.8502 103.847 80.1743 104.73 82.4223C106.6 87.331 107.244 92.6218 106.608 97.8351C105.8 105.317 104.632 112.626 103.596 118.79C102.669 124.303 100.285 129.833 96.5072 135.221C93.005 140.221 87.7733 143.745 80.5135 145.991C67.5962 149.988 55.4891 147.829 43.4998 139.396C42.3188 138.612 41.2862 137.624 40.4498 136.479C38.4049 133.546 36.513 130.508 34.7817 127.379C32.1452 122.485 29.4871 117.241 26.8821 111.791C22.883 103.427 17.7654 96.8387 11.2368 91.6497C10.1328 90.767 9.20428 89.6847 8.4993 88.4586C8.30024 88.1482 8.16962 87.799 8.1162 87.4334C8.06277 87.0685 8.08771 86.6964 8.18945 86.3413C8.35071 85.9376 8.59546 85.5727 8.90761 85.2701C9.21976 84.9682 9.59237 84.7352 10.0009 84.5862C11.2901 84.0139 12.6859 83.7212 14.0965 83.7264C14.8607 83.7297 15.6231 83.8039 16.3735 83.9483C22.1125 85.0319 25.9559 87.1683 28.4598 90.6731C29.3412 92.0619 30.0211 93.5689 30.4788 95.1487C30.6199 95.5582 30.7602 95.9671 30.9073 96.3688C31.4684 97.9086 32.2547 99.3341 34.189 99.3381H34.1983C35.8949 99.3381 37.1248 98.2827 37.573 96.4404C37.8308 95.4434 37.9605 94.4169 37.959 93.3864Z" fill="black"/>
</g>
<defs>
<clipPath id="clip0">
<rect width="112.234" height="156.208" fill="white" transform="translate(0.699524 0.10376)"/>
</clipPath>
</defs>
</svg>

<svg xmlns="http://www.w3.org/2000/svg" width="113" height="157" fill="none" viewBox="0 0 113 157"><g fill="#000" clip-path="url(#a)"><path d="M24.998 39.543a3.9 3.9 0 0 0 1.134-.185l.124-.037.066-.111c.919-1.53.562-3.04.216-4.5-.075-.312-.15-.625-.211-.937a13.79 13.79 0 0 1 9.05-15.93c3.703-1.318 7.068-1.386 10.29-.21 1.453.53 2.454.6 3.246.222.821-.39 1.412-1.247 1.974-2.871a10.5 10.5 0 0 1 1.378-2.888 16.33 16.33 0 0 1 13.013-6.72c5.93-.193 9.613 2.166 11.94 7.644 1.145 2.695 2.382 3.358 5.09 2.731 1.939-.448 3.536-.722 4.989.131l.71.416a42 42 0 0 1 6.72 4.533 8.74 8.74 0 0 1 2.786 8.561l-.05.268a5.9 5.9 0 0 0-.117 2.54 4.1 4.1 0 0 0 1.683 2.486 2.17 2.17 0 0 0 1.737.131 2.7 2.7 0 0 0 1.537-1.444 12.5 12.5 0 0 0 1.161-3.929c.549-5.582-1.444-10.277-5.913-13.951-5.245-4.31-10.136-6.12-15.387-5.685C79.922 5.082 76.071 2.18 70.4.948a1.4 1.4 0 0 1-.442-.266 4 4 0 0 0-.285-.205L69.59.424h-8.187l-.132.027c-.692.293-1.39.576-2.087.859-1.532.622-3.116 1.265-4.626 2.009-3.305 1.627-6.034 4.294-8.575 8.386-.673 0-1.322-.005-1.956-.008a159 159 0 0 0-4.2.014c-6.334.137-11.35 2.545-14.91 7.158-4.147 5.373-5.12 11.355-2.888 17.78.349.987 1.01 2.894 2.97 2.894"/><path d="M93.605 72.957q-.546.258-1.116.454l-.283.105.07-1.444c.065-1.32.123-2.532.171-3.746q.08-1.957.169-3.916c.384-8.656.782-17.608-.427-26.405-.647-4.712-1.452-9.266-4.147-13.189a9.313 9.313 0 0 0-13.761-1.985c-.46.377-.906.778-1.313 1.148l-.197.178q-.556-1.018-1.09-2.017c-.955-1.779-1.857-3.46-2.884-5.102-1.697-2.714-4.434-3.885-7.911-3.39a9.65 9.65 0 0 0-7.269 4.9 60 60 0 0 0-2.812 6.1c-.29.695-.578 1.389-.875 2.076l-.27-.439a32 32 0 0 0-1.759-2.653c-2.619-3.433-6.055-4.194-9.943-2.198-2.916 1.496-4.691 3.802-5.135 6.67-.346 2.239-.511 4.537-.67 6.76-.101 1.405-.205 2.857-.354 4.278-.907 8.646-.695 17.435-.49 25.934.096 3.975.197 8.085.178 12.125-.008 1.972.186 3.976.373 5.912.076.787.153 1.583.217 2.377h-.035l-.085.005q-.293-.237-.578-.483c-.297-.252-.604-.514-.928-.752-6.684-4.884-13.814-6.613-21.196-5.138a9.65 9.65 0 0 0-7.3 5.907 10.32 10.32 0 0 0 1.46 9.815 24 24 0 0 0 3.621 3.718l.434.387a52.8 52.8 0 0 1 11.984 15.082c4.307 8.283 8.837 16.347 14.313 25.907a17.4 17.4 0 0 0 4.517 5.094c9.483 7.187 19.074 10.737 29.103 10.737a45.2 45.2 0 0 0 8.986-.919c13.757-2.78 23.13-9.81 28.656-21.491a58.5 58.5 0 0 0 4.867-15.074c1.515-8.621 2.881-17.918 2.625-27.496a31.9 31.9 0 0 0-2.416-11.928 11.85 11.85 0 0 0-6.804-6.569 12.17 12.17 0 0 0-9.696.665m-55.646 20.43c-.131-7.811-.304-16.08-.507-24.572a275 275 0 0 0-.193-5.306c-.138-3.222-.28-6.554-.206-9.82.17-7.515.621-15.073 1.07-22.171.236-3.742.814-4.63 4.069-6.023 2.11 1.398 3.417 3.676 3.991 6.957.869 4.954 1.48 9.948 1.832 14.965.434 6.259.764 12.632 1.085 18.795.186 3.59.372 7.18.579 10.764.057.833.304 1.64.722 2.363a2.73 2.73 0 0 0 3.31 1.214 2.42 2.42 0 0 0 1.95-2.521c-.005-.853.016-1.706.037-2.564a41 41 0 0 0-.094-5.212c-.938-9.057-.47-18.269-.018-27.175l.1-2.005c.198-4.003.54-8.007.845-11.397.304-3.377 1.328-6.047 3.127-8.166.96-1.13 1.728-1.65 2.371-1.583.644.067 1.303.734 2.048 2.1 2.483 4.548 3.114 9.593 3.587 14.794.974 10.698.98 22.094.02 36.952-.056.875-.159 1.767-.258 2.629-.127 1.11-.262 2.26-.297 3.398-.05 1.482.328 2.544 1.116 3.159.787.614 1.945.713 3.36.303a4.83 4.83 0 0 0 3.65-4.437l.115-1.238c.34-3.056.523-6.127.55-9.202-.074-8.477-.322-17.092-.561-25.425l-.024-.822c-.025-.854-.107-1.721-.187-2.56-.228-2.406-.444-4.678.553-6.916l.296-.67a17.8 17.8 0 0 1 1.969-3.695 2.87 2.87 0 0 1 2.58-1.297 2.84 2.84 0 0 1 2.16 1.872 35.6 35.6 0 0 1 1.882 6.366c1.593 7.182 1.344 14.61 1.103 21.79l-.009.254c-.205 6.128-.306 12.361-.404 18.389q-.051 3.085-.105 6.17c-.029 1.63.11 3.297 2.118 4.218 2.722 1.247 3.946.906 5.46-1.517.3-.483.585-.976.869-1.47.38-.66.773-1.343 1.2-1.981 1.492-2.222 2.972-3.664 5.346-3.47 2.768.226 3.681 2.55 4.564 4.798a32.3 32.3 0 0 1 1.878 15.413c-.808 7.482-1.976 14.791-3.012 20.955-.927 5.513-3.311 11.043-7.089 16.431-3.502 5-8.734 8.524-15.994 10.77-12.917 3.997-25.024 1.838-37.013-6.595a12 12 0 0 1-3.05-2.917 104 104 0 0 1-5.668-9.1 364 364 0 0 1-7.9-15.588c-3.999-8.364-9.117-14.952-15.645-20.141a11.3 11.3 0 0 1-2.738-3.191 2.6 2.6 0 0 1-.31-2.118 3.1 3.1 0 0 1 1.812-1.755 10 10 0 0 1 4.096-.86c.764.004 1.526.078 2.277.222 5.739 1.084 9.582 3.22 12.086 6.725a17.4 17.4 0 0 1 2.019 4.476q.209.616.428 1.22c.561 1.54 1.348 2.965 3.282 2.97h.01c1.696 0 2.926-1.056 3.374-2.899a12 12 0 0 0 .386-3.054"/></g><defs><clipPath id="a"><path fill="#fff" d="M.7.104h112.234v156.208H.7z"/></clipPath></defs></svg>
